X: 21162
T: PEACOCK'S FANCY -- Hornpipe
R: hornpipe
B: K\"ohler's Violin Repository, v.2, 1885 p.116 #2
F: http://www.archive.org/details/klersviolinrepos02rugg
Z: 2012 John Chambers <jc:trillian.mit.edu>
M: C|
L: 1/8
K: A
((3efg) |\
a2e>c (A>B)c>A | (G>A)B>G (E>F)E>D | (C>E)A>c (B>d)f>e | dcBA GBEg |
a2e>c (A>B)c>A | (G>A)B>G (E>F)E>D | (C>E)A>c (A>d)f>d | c>BA>G A2 :|
|: (ed) |\
cede ceBe | (A>c)e>a (g>f)e>d | (d>c)f>e (d>c)B>A | (G>A)B>G E2ed |
cede ceBe | (A>c)e>a (g>f)e>d | (c>a)f>d (c>A)B>G | A2c2 A2 :|

%%sep 2 1 500

